X: 1347
T: Jenny Picking Cockles
R:Reel
N:Collected by Early
B:O'Neill's 1347
Z:Transcribed by Trish O'Neil
M:C|
L:1/8
K:D
Addc AGEF|GEcE dEcE|Addc AGEF|GEcE EDFG|
Addc AGEF|GE-~E2c2(cd)|edcA AGEF|GEcE TEDD2||
f2fde2ed|cAAB cdeg|f2fde2ed|eage (ed)d2|
f2fde2ed|cAABc3d|edcA AGEF|GEcE T(ED)D2|]


